X: 132
T: Miss Wemyss of Wemyss's Reel
R: reel
B: William Shepherd "1st Collection" 1793 p.13 #2
F: http://imslp.org/wiki/File:PMLP73094-Shepherd_Collections_HMT.pdf
C: William Shepherd (17??-1812)
Z: 2012 John Chambers <jc:trillian.mit.edu>
M: C|
L: 1/8
K: F
A |\
TFf-fc AFcA | BAGF EFGA | TFf-fc AFcA | Bc/d/cB AGFA |\
Ff-fc AFcA | BAGF EFGB | AcFc BdGf | egbg aTffc ||
f/f/f af bgaf | e/f/g cg ecge | f/f/f af bgaf | egbg affc |\
f/f/f af bgaf | edcd efge | fadf cfAF | BdcB AFF |]
